X: 31332
T: Paddy McLeod's
R: jig
M: 6/8
K: Edorian
E2 F G2 F|EGB efg|fed B2 d|AFB AFD|
EFE GFE|EGB e2 g|fdB AGF|GEE E2:|
gef g2 e|g2 a bge|fdc d2 e|f2 g afd|
1 gef gef|gea bge|fdB AGF|GEE E2:|
2 bag agf|gfe fed|BAF Adc|BEE E2||

